X:1
T:The Call, 77.77
T:The Call, 77.77
T:Ralph Vaughan Williams, 1911
T:Public Domain Courtesy of the Cyber Hymnal™
C:Ralph Vaughan Williams, 1911
Z:Public Domain
Z:Courtesy of the Cyber Hymnal™
%%score ( 1 2 ) ( 3 4 )
L:1/8
Q:1/4=130
M:6/4
K:Eb
V:1 treble 
V:2 treble 
V:3 bass 
V:4 bass 
V:1
 E4 G2 | B4 B2 (c2 B2) A2 | B6 E4 G2 | B4 B2 (c2 B2) A2 | B6 [_GB_d]4 [F-Bd]2 | %5
 [FAc]4 [EAc]2 [FB]4 [CFA]2 | [EB]6 A4 A2 | G4 G2 F2 G2 A2 | (G2 F2 E2 [_DF]4) [CF]2 | [B,E]12 |] %10
V:2
 C6 | _D6 E6 | (E4 _D2) C6 | _D4 E6 x2 | (E4 _D2) x6 | x6 (E2 _D2) x2 | x6 F6 | E6 C6- | C6 x6 | %9
 x12 |] %10
V:3
 [C,E,]6 | [B,,F,]6 [A,,A,]6 | [B,,F,]6 [C,E,]6 | [B,,F,]6 [A,,A,]6 | [B,,F,]6 [_G,,B,]6 | %5
 [A,,C]6 [B,,F,]4 F,2 | [E,G,]6 _D4 C2 | [E,B,]6 ([F,A,]6- | [F,A,]6 [B,,B,]6) | (A,6 G,6) |] %10
V:4
 x6 | x12 | x12 | x12 | x12 | x12 | x6 _D,6 | x12 | x12 | E,12 |] %10

